X:9
T:Spey in Spate
R:Reel
O:Scotland
M:2/2
C:J.S. Skinner.-Natalie MacMaster
K:D
A,|:D2 FD A,DFA|dcBA ^GAFD|E/2E/2E (3GFE B,EGB|gecA GECE|
DE (3FED A,DFA|dDcD BDAf|gefd ecdB|1.AFGE DA,B,C:|2.AFGE D|:ABc|
d/2d/2d fd AdFA|DFAd fagf|e/2e/2e ge BGED|CEAc egfe|{A}d2 fd  AdFA|
DFAd fagf|gefd ecdB|AFGE D:||
